X:449
T:Sbrando
Z:Jack Campin, http://www.campin.me.uk/
F:Jack Campin's Nine-Note Tunebook
% last edit 24-05-2014
S:http://banjolin.co.uk/tunes/abcs/sbrando.abc
M:6/8
L:1/8
Q:3/8=100
K:D
F2G|A2A ABA|F2F AGF|E2E GFE|F2D
F2G|A2A ABA|F2F AGF|E2E GFE|D3:|
EFE|D3  E3 |F3  EFE|DEF GFE|F2D
F2G|A2A ABA|F2F AGF|E2E GFE|D3:|
K:G
DEF|G2G GAB|c2c cBA|d2d cBA|B2G
DEF|G2G GAB|c2c cBA|d2d cBA|G3:|

